apps/app.mento.org/public/tokens/cEUR.svg

<svg width="40" height="40" viewBox="0 0 40 40" fill="none" xmlns="http://www.w3.org/2000/svg">
<g clip-path="url(#clip0_4004_57049)">
<path d="M20 40C31.0457 40 40 31.0457 40 20C40 8.95431 31.0457 0 20 0C8.95431 0 0 8.95431 0 20C0 31.0457 8.95431 40 20 40Z" fill="#4EEAFF"/>
<path d="M18.8151 30.8003C14.3559 30.8003 10.7111 27.1563 10.7111 22.6963C10.7111 19.5315 12.5335 16.7499 15.2183 15.4555V12.5307C11.0463 14.0171 8.02551 17.9971 8.02551 22.6963C8.02551 28.6427 12.8687 33.4859 18.8151 33.4859C23.5143 33.4859 27.4943 30.4651 28.9807 26.2931H26.0559C24.7615 28.9787 21.9799 30.8003 18.8151 30.8003Z" fill="#070010"/>
<path d="M22.1407 17.7593H28.8479L29.4527 15.7425H21.5351C21.4847 15.4401 21.4847 15.1881 21.4847 14.8849C21.4847 14.5817 21.4847 14.2801 21.5351 13.9769H30.0071L30.6119 11.9601H22.0895C22.9975 9.99367 24.8631 8.83367 27.3847 8.83367C28.7463 8.83367 30.0575 9.18647 31.2679 9.84247L31.9735 7.57287C30.6119 6.86727 28.9983 6.51367 27.3847 6.51367C23.6023 6.51367 20.6271 8.68247 19.5183 11.9097H17.2991L16.6943 13.8257H19.1151C19.0647 14.1785 19.0647 14.5313 19.0647 14.8849C19.0647 15.2385 19.0647 15.5401 19.1151 15.8937H17.2999L16.6951 17.8097H19.5695C20.6287 21.0369 23.5535 23.1553 27.3351 23.1553C28.9991 23.1553 30.5623 22.7017 31.8735 21.8945V19.2721C30.6127 20.2305 29.0999 20.8353 27.3855 20.8353C24.9647 20.8353 23.0487 19.6753 22.1407 17.7593Z" fill="#070010"/>
</g>
<defs>
<clipPath id="clip0_4004_57049">
<rect width="40" height="40" fill="white"/>
</clipPath>
</defs>
</svg>

<svg xmlns="http://www.w3.org/2000/svg" width="40" height="40" fill="none" viewBox="0 0 40 40"><g clip-path="url(#a)"><path fill="#4EEAFF" d="M20 40c11.046 0 20-8.954 20-20S31.046 0 20 0 0 8.954 0 20s8.954 20 20 20"/><path fill="#070010" d="M18.815 30.8c-4.46 0-8.104-3.644-8.104-8.104 0-3.165 1.822-5.946 4.507-7.24V12.53c-4.172 1.486-7.192 5.466-7.192 10.165 0 5.947 4.843 10.79 10.79 10.79 4.698 0 8.678-3.02 10.165-7.193h-2.925c-1.294 2.686-4.076 4.507-7.24 4.507"/><path fill="#070010" d="M22.14 17.76h6.708l.605-2.018h-7.918c-.05-.302-.05-.554-.05-.857s0-.605.05-.908h8.472l.605-2.017H22.09c.907-1.966 2.773-3.126 5.295-3.126 1.361 0 2.672.352 3.883 1.008l.706-2.27c-1.362-.705-2.976-1.058-4.59-1.058-3.782 0-6.757 2.168-7.866 5.396H17.3l-.605 1.916h2.421c-.05.352-.05.705-.05 1.059s0 .655.05 1.009H17.3l-.605 1.916h2.875c1.059 3.227 3.983 5.345 7.765 5.345a8.64 8.64 0 0 0 4.538-1.26v-2.623c-1.26.959-2.773 1.563-4.488 1.563-2.42 0-4.336-1.16-5.244-3.076"/></g><defs><clipPath id="a"><path fill="#fff" d="M0 0h40v40H0z"/></clipPath></defs></svg>
